X:1
T: The Lover's Farewell
N:
C:Pat Shaw "Ick gae mijn soeten Engel"
S: Play  3  times
A:
O:
R:
M:3/4
K:Am
I:speed 150
%W: A1
% voice 1 (1 lines, 26 notes)
K:Am
M:3/4
L:1/16
A2 B2 c2 d2 e4 |c4 A4 e4 |d6 e2 c2 d2 |B12 |c2 d2 e2 f2 g4 |e4 c4 g4 |f2 g2 e6 d2 |d12 |
%W: A2
% voice 1 (1 lines, 26 notes)
A2 B2 c2 d2 e4 |c4 A4 e4 |d6 e2 c2 d2 |B12 |c2 d2 e2 f2 g4 |e4 c4 g4 |f2 g2 e6 d2 |d12 |
%W: B1
% voice 1 (1 lines, 23 notes)
e4 e4 e4 |e6 f2 g4 |B4 c4 d4 |e12 |e4 g4 e4 |d8 c4 |d2 c2 d2 e2 f2 d2 |e8 g4 |
%W:
% voice 1 (1 lines, 24 notes)
g6 f2 e4 |d4 B4 e4 |e6 d2 c4 |B8 c4 |A2 ^G2 A2 B2 c2 d2 |e4 A4 a4 |b4 ^g6 a2 |a12 |
%W: B2
% voice 1 (1 lines, 23 notes)
e4 e4 e4 |e6 f2 g4 |B4 c4 d4 |e12 |e4 g4 e4 |d8 c4 |d2 c2 d2 e2 f2 d2 |e8 g4 |
%W:
% voice 1 (1 lines, 24 notes)
g6 f2 e4 |d4 B4 e4 |e6 d2 c4 |B8 c4 |A2 ^G2 A2 B2 c2 d2 |e4 A4 a4 |b4 ^g6 a2 |a12 ||
